svg/azure-image.svg

<?xml version="1.0" encoding="UTF-8"?>
<svg xmlns="http://www.w3.org/2000/svg" xmlns:xlink="http://www.w3.org/1999/xlink" width="32" height="32" viewBox="0 0 32 32">
<defs>
<linearGradient id="linear-pattern-0" gradientUnits="userSpaceOnUse" x1="8.8" y1="12.87" x2="8.8" y2="0.87" gradientTransform="matrix(1.777778, 0.00266842, -0.00266842, 1.777778, 0, 0)">
<stop offset="0" stop-color="rgb(0%, 47.058824%, 83.137255%)" stop-opacity="1"/>
<stop offset="0.82" stop-color="rgb(36.862745%, 62.745098%, 93.72549%)" stop-opacity="1"/>
</linearGradient>
<linearGradient id="linear-pattern-1" gradientUnits="userSpaceOnUse" x1="8.81" y1="17.5" x2="8.81" y2="12.87" gradientTransform="matrix(1.777778, 0.00266842, -0.00266842, 1.777778, 0, 0)">
<stop offset="0" stop-color="rgb(7.843137%, 56.470588%, 87.45098%)" stop-opacity="1"/>
<stop offset="0.98" stop-color="rgb(12.156863%, 33.72549%, 63.921569%)" stop-opacity="1"/>
</linearGradient>
</defs>
<path fill-rule="nonzero" fill="url(#linear-pattern-0)" d="M 0.710938 1.546875 L 30.578125 1.546875 C 31.167969 1.546875 31.644531 2.023438 31.644531 2.613281 L 31.644531 21.8125 C 31.644531 22.097656 31.535156 22.367188 31.332031 22.566406 C 31.132812 22.769531 30.859375 22.878906 30.578125 22.878906 L 0.710938 22.878906 C 0.125 22.875 -0.351562 22.398438 -0.355469 21.8125 L -0.355469 2.613281 C -0.351562 2.027344 0.121094 1.550781 0.710938 1.546875 M 0.710938 1.546875 "/>
<path fill-rule="nonzero" fill="rgb(31.372549%, 90.196078%, 100%)" fill-opacity="1" d="M 20.976562 9.101562 L 20.976562 15.308594 L 15.644531 18.4375 L 15.644531 12.214844 Z M 20.976562 9.101562 "/>
<path fill-rule="nonzero" fill="rgb(76.470588%, 94.509804%, 100%)" fill-opacity="1" d="M 20.976562 9.101562 L 15.664062 12.230469 L 10.3125 9.101562 L 15.664062 5.992188 Z M 20.976562 9.101562 "/>
<path fill-rule="nonzero" fill="rgb(61.176471%, 92.156863%, 100%)" fill-opacity="1" d="M 15.644531 12.230469 L 15.644531 18.4375 L 10.3125 15.308594 L 10.3125 9.101562 Z M 15.644531 12.230469 "/>
<path fill-rule="nonzero" fill="rgb(76.470588%, 94.509804%, 100%)" fill-opacity="1" d="M 10.3125 15.308594 L 15.644531 12.214844 L 15.644531 18.4375 Z M 10.3125 15.308594 "/>
<path fill-rule="nonzero" fill="rgb(61.176471%, 92.156863%, 100%)" fill-opacity="1" d="M 20.976562 15.308594 L 15.644531 12.214844 L 15.644531 18.4375 Z M 20.976562 15.308594 "/>
<path fill-rule="nonzero" fill="url(#linear-pattern-1)" d="M 22.0625 29.332031 C 18.898438 28.835938 18.773438 26.558594 18.792969 22.878906 L 12.445312 22.878906 C 12.445312 26.558594 12.445312 28.835938 9.226562 29.332031 C 8.328125 29.441406 7.65625 30.207031 7.664062 31.109375 L 23.664062 31.109375 C 23.621094 30.210938 22.949219 29.46875 22.0625 29.332031 "/>
<path fill-rule="nonzero" fill="rgb(100%, 100%, 100%)" fill-opacity="1" d="M 8.320312 3.679688 L 3.429688 3.679688 C 2.78125 3.679688 2.257812 4.207031 2.257812 4.851562 L 2.257812 9.761719 C 2.257812 10.085938 2.519531 10.347656 2.84375 10.347656 L 3.234375 10.347656 C 3.390625 10.347656 3.539062 10.285156 3.648438 10.175781 C 3.757812 10.066406 3.820312 9.917969 3.820312 9.761719 L 3.820312 5.226562 L 8.320312 5.226562 C 8.636719 5.21875 8.890625 4.957031 8.890625 4.640625 L 8.890625 4.265625 C 8.886719 3.949219 8.636719 3.691406 8.320312 3.679688 M 8.320312 19.074219 L 3.804688 19.074219 L 3.804688 14.578125 C 3.804688 14.421875 3.742188 14.273438 3.632812 14.164062 C 3.523438 14.054688 3.375 13.992188 3.21875 13.992188 L 2.84375 13.992188 C 2.6875 13.992188 2.539062 14.054688 2.429688 14.164062 C 2.320312 14.273438 2.257812 14.421875 2.257812 14.578125 L 2.257812 19.554688 C 2.253906 19.871094 2.375 20.171875 2.59375 20.398438 C 2.816406 20.621094 3.117188 20.746094 3.429688 20.746094 L 8.320312 20.746094 C 8.492188 20.738281 8.648438 20.660156 8.757812 20.527344 C 8.867188 20.394531 8.914062 20.222656 8.890625 20.054688 L 8.890625 19.664062 C 8.890625 19.347656 8.640625 19.085938 8.320312 19.074219 M 27.929688 3.734375 L 23.109375 3.734375 C 22.953125 3.734375 22.804688 3.792969 22.695312 3.90625 C 22.585938 4.015625 22.523438 4.164062 22.523438 4.320312 L 22.523438 4.691406 C 22.507812 4.855469 22.5625 5.019531 22.675781 5.144531 C 22.789062 5.265625 22.945312 5.335938 23.109375 5.332031 L 27.609375 5.332031 L 27.609375 9.796875 C 27.609375 9.953125 27.671875 10.101562 27.78125 10.210938 C 27.890625 10.320312 28.039062 10.382812 28.195312 10.382812 L 28.605469 10.382812 C 28.761719 10.382812 28.910156 10.320312 29.019531 10.210938 C 29.128906 10.101562 29.191406 9.953125 29.191406 9.796875 L 29.191406 4.90625 C 29.191406 4.578125 29.054688 4.265625 28.816406 4.042969 C 28.578125 3.820312 28.253906 3.707031 27.929688 3.734375 M 28.535156 14.027344 L 28.160156 14.027344 C 28.003906 14.023438 27.851562 14.082031 27.742188 14.195312 C 27.632812 14.304688 27.574219 14.457031 27.574219 14.613281 L 27.574219 19.128906 L 23.109375 19.128906 C 22.953125 19.128906 22.804688 19.1875 22.695312 19.300781 C 22.585938 19.410156 22.523438 19.558594 22.523438 19.714844 L 22.523438 20.105469 C 22.523438 20.257812 22.585938 20.410156 22.695312 20.519531 C 22.804688 20.628906 22.953125 20.691406 23.109375 20.691406 L 28 20.691406 C 28.652344 20.695312 29.179688 20.171875 29.191406 19.519531 L 29.191406 14.613281 C 29.195312 14.441406 29.125 14.28125 28.996094 14.167969 C 28.871094 14.054688 28.703125 14.003906 28.535156 14.027344 "/>
</svg>

<svg role="img" viewBox="0 0 32 32" xmlns="http://www.w3.org/2000/svg"><defs><linearGradient gradientTransform="rotate(.086)scale(1.77778)" gradientUnits="userSpaceOnUse" id="azure-image_svg__a" x1="8.8" x2="8.8" y1="12.87" y2=".87"><stop offset="0" stop-color="rgb(0%, 47.058824%, 83.137256%)"/><stop offset=".82" stop-color="rgb(36.862746%, 62.7451%, 93.725491%)"/></linearGradient><linearGradient gradientTransform="rotate(.086)scale(1.77778)" gradientUnits="userSpaceOnUse" id="azure-image_svg__b" x1="8.81" x2="8.81" y1="17.5" y2="12.87"><stop offset="0" stop-color="rgb(7.843138%, 56.470591%, 87.450981%)"/><stop offset=".98" stop-color="rgb(12.156863%, 33.725491%, 63.921571%)"/></linearGradient></defs><path d="M.71 1.547h29.868a1.07 1.07 0 0 1 1.067 1.066v19.2a1.064 1.064 0 0 1-1.067 1.066H.711a1.07 1.07 0 0 1-1.066-1.067V2.613A1.064 1.064 0 0 1 .71 1.547m0 0" fill="url(#azure-image_svg__a)"/><path d="M20.977 9.102v6.207l-5.332 3.129v-6.223Zm0 0" fill="rgb(31.37255%, 90.196079%, 100%)"/><path d="m20.977 9.102-5.313 3.128-5.351-3.128 5.351-3.11Zm0 0" fill="rgb(76.47059%, 94.509804%, 100%)"/><path d="M15.645 12.23v6.208l-5.332-3.13V9.103Zm0 0" fill="rgb(61.176473%, 92.156863%, 100%)"/><path d="m10.313 15.309 5.332-3.094v6.223Zm0 0" fill="rgb(76.47059%, 94.509804%, 100%)"/><path d="m20.977 15.309-5.332-3.094v6.223Zm0 0" fill="rgb(61.176473%, 92.156863%, 100%)"/><path d="M22.063 29.332c-3.165-.496-3.29-2.773-3.27-6.453h-6.348c0 3.68 0 5.957-3.218 6.453-.899.11-1.57.875-1.563 1.777h16a1.89 1.89 0 0 0-1.602-1.777" fill="url(#azure-image_svg__b)"/><path d="M8.32 3.68H3.43c-.649 0-1.172.527-1.172 1.172v4.91c0 .324.262.586.586.586h.39a.585.585 0 0 0 .586-.586V5.227h4.5a.587.587 0 0 0 .57-.586v-.375a.59.59 0 0 0-.57-.586m0 15.394H3.805v-4.496a.585.585 0 0 0-.586-.586h-.375a.585.585 0 0 0-.586.586v4.977a1.2 1.2 0 0 0 .336.843c.222.223.523.348.836.348h4.89a.6.6 0 0 0 .438-.219.6.6 0 0 0 .133-.472v-.39a.59.59 0 0 0-.57-.59M27.93 3.734h-4.82a.585.585 0 0 0-.586.586v.37a.6.6 0 0 0 .152.454c.113.12.27.19.433.187h4.5v4.465a.585.585 0 0 0 .586.586h.41a.585.585 0 0 0 .586-.586v-4.89a1.18 1.18 0 0 0-.375-.864 1.16 1.16 0 0 0-.886-.309m.605 10.293h-.375a.58.58 0 0 0-.586.586v4.516H23.11a.585.585 0 0 0-.586.586v.39a.585.585 0 0 0 .586.586H28c.652.004 1.18-.52 1.191-1.171v-4.907a.583.583 0 0 0-.656-.586" fill="rgb(100%, 100%, 100%)"/></svg>
